images/34655.svg

<?xml version="1.0" encoding="UTF-8"?>
<svg xmlns="http://www.w3.org/2000/svg" xmlns:xlink="http://www.w3.org/1999/xlink" width="300pt" height="300pt" viewBox="0 0 300 300" version="1.1">
<defs>
<g>
<symbol overflow="visible" id="glyph0-0">
<path style="stroke:none;" d="M 0.453125 1.59375 L 0.453125 -6.34375 L 4.953125 -6.34375 L 4.953125 1.59375 Z M 0.953125 1.09375 L 4.453125 1.09375 L 4.453125 -5.84375 L 0.953125 -5.84375 Z M 0.953125 1.09375 "/>
</symbol>
<symbol overflow="visible" id="glyph0-1">
<path style="stroke:none;" d="M 5.796875 -6.0625 L 5.796875 -5.125 C 5.492188 -5.394531 5.171875 -5.597656 4.828125 -5.734375 C 4.492188 -5.878906 4.140625 -5.953125 3.765625 -5.953125 C 3.015625 -5.953125 2.4375 -5.722656 2.03125 -5.265625 C 1.632812 -4.804688 1.4375 -4.144531 1.4375 -3.28125 C 1.4375 -2.414062 1.632812 -1.753906 2.03125 -1.296875 C 2.4375 -0.835938 3.015625 -0.609375 3.765625 -0.609375 C 4.140625 -0.609375 4.492188 -0.675781 4.828125 -0.8125 C 5.171875 -0.945312 5.492188 -1.15625 5.796875 -1.4375 L 5.796875 -0.5 C 5.484375 -0.289062 5.15625 -0.132812 4.8125 -0.03125 C 4.46875 0.0703125 4.097656 0.125 3.703125 0.125 C 2.710938 0.125 1.929688 -0.175781 1.359375 -0.78125 C 0.785156 -1.394531 0.5 -2.226562 0.5 -3.28125 C 0.5 -4.332031 0.785156 -5.160156 1.359375 -5.765625 C 1.929688 -6.378906 2.710938 -6.6875 3.703125 -6.6875 C 4.097656 -6.6875 4.46875 -6.632812 4.8125 -6.53125 C 5.164062 -6.425781 5.492188 -6.269531 5.796875 -6.0625 Z M 5.796875 -6.0625 "/>
</symbol>
<symbol overflow="visible" id="glyph0-2">
<path style="stroke:none;" d="M 0.84375 -6.84375 L 1.65625 -6.84375 L 1.65625 0 L 0.84375 0 Z M 0.84375 -6.84375 "/>
</symbol>
<symbol overflow="visible" id="glyph0-3">
<path style="stroke:none;" d="M 0.890625 -6.5625 L 2.078125 -6.5625 L 4.984375 -1.078125 L 4.984375 -6.5625 L 5.84375 -6.5625 L 5.84375 0 L 4.65625 0 L 1.75 -5.484375 L 1.75 0 L 0.890625 0 Z M 0.890625 -6.5625 "/>
</symbol>
<symbol overflow="visible" id="glyph0-4">
<path style="stroke:none;" d="M 0.890625 -6.5625 L 1.765625 -6.5625 L 1.765625 -3.875 L 5 -3.875 L 5 -6.5625 L 5.890625 -6.5625 L 5.890625 0 L 5 0 L 5 -3.125 L 1.765625 -3.125 L 1.765625 0 L 0.890625 0 Z M 0.890625 -6.5625 "/>
</symbol>
</g>
</defs>
<g id="surface17809">
<rect x="0" y="0" width="300" height="300" style="fill:rgb(100%,100%,100%);fill-opacity:1;stroke:none;"/>
<path style="fill:none;stroke-width:1.2;stroke-linecap:butt;stroke-linejoin:miter;stroke:rgb(0%,80%,0%);stroke-opacity:1;stroke-miterlimit:10;" d="M 35.25 122.234375 L 47.886719 121.445312 "/>
<path style="fill:none;stroke-width:1.2;stroke-linecap:butt;stroke-linejoin:miter;stroke:rgb(0%,0%,0%);stroke-opacity:1;stroke-miterlimit:10;" d="M 47.886719 121.445312 L 60.523438 120.65625 "/>
<path style=" stroke:none;fill-rule:nonzero;fill:rgb(100%,100%,100%);fill-opacity:1;" d="M 25.25 116.734375 L 35.25 116.734375 L 35.25 127.734375 L 25.25 127.734375 Z M 25.25 116.734375 "/>
<g style="fill:rgb(0%,80%,0%);fill-opacity:1;">
  <use xlink:href="#glyph0-1" x="25.25" y="125.397461"/>
  <use xlink:href="#glyph0-2" x="31.763672" y="125.397461"/>
</g>
<path style="fill:none;stroke-width:1.2;stroke-linecap:butt;stroke-linejoin:miter;stroke:rgb(0%,0%,0%);stroke-opacity:1;stroke-miterlimit:10;" d="M 60.523438 120.65625 L 71.796875 97.980469 "/>
<path style="fill:none;stroke-width:1.2;stroke-linecap:butt;stroke-linejoin:miter;stroke:rgb(0%,0%,0%);stroke-opacity:1;stroke-miterlimit:10;" d="M 66.988281 121.042969 L 76.003906 102.898438 "/>
<path style="fill:none;stroke-width:1.2;stroke-linecap:butt;stroke-linejoin:miter;stroke:rgb(0%,0%,0%);stroke-opacity:1;stroke-miterlimit:10;" d="M 74.527344 141.757812 L 60.523438 120.65625 "/>
<path style="fill:none;stroke-width:1.2;stroke-linecap:butt;stroke-linejoin:miter;stroke:rgb(0%,0%,0%);stroke-opacity:1;stroke-miterlimit:10;" d="M 71.796875 97.980469 L 97.070312 96.402344 "/>
<path style="fill:none;stroke-width:1.2;stroke-linecap:butt;stroke-linejoin:miter;stroke:rgb(0%,0%,0%);stroke-opacity:1;stroke-miterlimit:10;" d="M 97.070312 96.402344 L 111.074219 117.503906 "/>
<path style="fill:none;stroke-width:1.2;stroke-linecap:butt;stroke-linejoin:miter;stroke:rgb(0%,0%,0%);stroke-opacity:1;stroke-miterlimit:10;" d="M 93.507812 101.808594 L 104.710938 118.6875 "/>
<path style="fill:none;stroke-width:1.2;stroke-linecap:butt;stroke-linejoin:miter;stroke:rgb(0%,0%,0%);stroke-opacity:1;stroke-miterlimit:10;" d="M 111.074219 117.503906 L 99.800781 140.179688 "/>
<path style="fill:none;stroke-width:1.2;stroke-linecap:butt;stroke-linejoin:miter;stroke:rgb(0%,0%,0%);stroke-opacity:1;stroke-miterlimit:10;" d="M 111.074219 117.503906 L 136.347656 115.925781 "/>
<path style="fill:none;stroke-width:1.2;stroke-linecap:butt;stroke-linejoin:miter;stroke:rgb(0%,0%,0%);stroke-opacity:1;stroke-miterlimit:10;" d="M 99.800781 140.179688 L 74.527344 141.757812 "/>
<path style="fill:none;stroke-width:1.2;stroke-linecap:butt;stroke-linejoin:miter;stroke:rgb(0%,0%,0%);stroke-opacity:1;stroke-miterlimit:10;" d="M 96.902344 134.390625 L 76.683594 135.652344 "/>
<path style="fill:none;stroke-width:1.2;stroke-linecap:butt;stroke-linejoin:miter;stroke:rgb(0%,0%,0%);stroke-opacity:1;stroke-miterlimit:10;" d="M 136.347656 115.925781 L 143.140625 105.238281 "/>
<path style="fill:none;stroke-width:1.2;stroke-linecap:butt;stroke-linejoin:miter;stroke:rgb(0%,0%,100%);stroke-opacity:1;stroke-miterlimit:10;" d="M 143.140625 105.238281 L 149.929688 94.554688 "/>
<path style="fill:none;stroke-width:1.2;stroke-linecap:butt;stroke-linejoin:miter;stroke:rgb(0%,0%,0%);stroke-opacity:1;stroke-miterlimit:10;" d="M 142.734375 116.984375 L 148.167969 108.433594 "/>
<path style="fill:none;stroke-width:1.2;stroke-linecap:butt;stroke-linejoin:miter;stroke:rgb(0%,0%,100%);stroke-opacity:1;stroke-miterlimit:10;" d="M 148.167969 108.433594 L 153.601562 99.886719 "/>
<path style="fill:none;stroke-width:1.2;stroke-linecap:butt;stroke-linejoin:miter;stroke:rgb(0%,0%,0%);stroke-opacity:1;stroke-miterlimit:10;" d="M 152.480469 135.449219 L 136.347656 115.925781 "/>
<path style="fill:none;stroke-width:1.2;stroke-linecap:butt;stroke-linejoin:miter;stroke:rgb(0%,0%,100%);stroke-opacity:1;stroke-miterlimit:10;" d="M 149.929688 94.554688 L 174.453125 100.863281 "/>
<path style=" stroke:none;fill-rule:nonzero;fill:rgb(100%,100%,100%);fill-opacity:1;" d="M 146.929688 89.054688 L 153.929688 89.054688 L 153.929688 100.054688 L 146.929688 100.054688 Z M 146.929688 89.054688 "/>
<g style="fill:rgb(0%,0%,100%);fill-opacity:1;">
  <use xlink:href="#glyph0-3" x="146.929688" y="97.717773"/>
</g>
<path style="fill:none;stroke-width:1.2;stroke-linecap:butt;stroke-linejoin:miter;stroke:rgb(0%,0%,100%);stroke-opacity:1;stroke-miterlimit:10;" d="M 174.453125 100.863281 L 175.242188 113.5 "/>
<path style="fill:none;stroke-width:1.2;stroke-linecap:butt;stroke-linejoin:miter;stroke:rgb(0%,0%,0%);stroke-opacity:1;stroke-miterlimit:10;" d="M 175.242188 113.5 L 176.03125 126.136719 "/>
<path style=" stroke:none;fill-rule:nonzero;fill:rgb(100%,100%,100%);fill-opacity:1;" d="M 167.453125 95.363281 L 181.453125 95.363281 L 181.453125 106.363281 L 167.453125 106.363281 Z M 167.453125 95.363281 "/>
<g style="fill:rgb(0%,0%,100%);fill-opacity:1;">
  <use xlink:href="#glyph0-3" x="167.453125" y="104.026367"/>
  <use xlink:href="#glyph0-4" x="174.430664" y="104.026367"/>
</g>
<path style="fill:none;stroke-width:1.2;stroke-linecap:butt;stroke-linejoin:miter;stroke:rgb(0%,0%,0%);stroke-opacity:1;stroke-miterlimit:10;" d="M 176.03125 126.136719 L 186.71875 132.929688 "/>
<path style="fill:none;stroke-width:1.2;stroke-linecap:butt;stroke-linejoin:miter;stroke:rgb(0%,0%,100%);stroke-opacity:1;stroke-miterlimit:10;" d="M 186.71875 132.929688 L 197.40625 139.71875 "/>
<path style="fill:none;stroke-width:1.2;stroke-linecap:butt;stroke-linejoin:miter;stroke:rgb(0%,0%,0%);stroke-opacity:1;stroke-miterlimit:10;" d="M 176.03125 126.136719 L 152.480469 135.449219 "/>
<path style="fill:none;stroke-width:1.2;stroke-linecap:butt;stroke-linejoin:miter;stroke:rgb(0%,0%,0%);stroke-opacity:1;stroke-miterlimit:10;" d="M 171.484375 121.527344 L 152.644531 128.976562 "/>
<path style="fill:none;stroke-width:1.2;stroke-linecap:butt;stroke-linejoin:miter;stroke:rgb(0%,0%,100%);stroke-opacity:1;stroke-miterlimit:10;" d="M 197.40625 139.71875 L 208.628906 133.859375 "/>
<path style="fill:none;stroke-width:1.2;stroke-linecap:butt;stroke-linejoin:miter;stroke:rgb(0%,0%,0%);stroke-opacity:1;stroke-miterlimit:10;" d="M 208.628906 133.859375 L 219.851562 128 "/>
<path style="fill:none;stroke-width:1.2;stroke-linecap:butt;stroke-linejoin:miter;stroke:rgb(0%,0%,0%);stroke-opacity:1;stroke-miterlimit:10;" d="M 196.332031 165.019531 L 196.867188 152.371094 "/>
<path style="fill:none;stroke-width:1.2;stroke-linecap:butt;stroke-linejoin:miter;stroke:rgb(0%,0%,100%);stroke-opacity:1;stroke-miterlimit:10;" d="M 196.867188 152.371094 L 197.40625 139.71875 "/>
<path style=" stroke:none;fill-rule:nonzero;fill:rgb(100%,100%,100%);fill-opacity:1;" d="M 194.40625 134.21875 L 201.40625 134.21875 L 201.40625 145.21875 L 194.40625 145.21875 Z M 194.40625 134.21875 "/>
<g style="fill:rgb(0%,0%,100%);fill-opacity:1;">
  <use xlink:href="#glyph0-3" x="194.40625" y="142.881836"/>
</g>
<path style="fill:none;stroke-width:1.2;stroke-linecap:butt;stroke-linejoin:miter;stroke:rgb(0%,0%,0%);stroke-opacity:1;stroke-miterlimit:10;" d="M 219.851562 128 L 241.226562 141.578125 "/>
<path style="fill:none;stroke-width:1.2;stroke-linecap:butt;stroke-linejoin:miter;stroke:rgb(0%,0%,0%);stroke-opacity:1;stroke-miterlimit:10;" d="M 220.925781 102.699219 L 219.851562 128 "/>
<path style="fill:none;stroke-width:1.2;stroke-linecap:butt;stroke-linejoin:miter;stroke:rgb(0%,0%,0%);stroke-opacity:1;stroke-miterlimit:10;" d="M 241.226562 141.578125 L 263.675781 129.859375 "/>
<path style="fill:none;stroke-width:1.2;stroke-linecap:butt;stroke-linejoin:miter;stroke:rgb(0%,0%,0%);stroke-opacity:1;stroke-miterlimit:10;" d="M 241.226562 141.578125 L 240.152344 166.878906 "/>
<path style="fill:none;stroke-width:1.2;stroke-linecap:butt;stroke-linejoin:miter;stroke:rgb(0%,0%,0%);stroke-opacity:1;stroke-miterlimit:10;" d="M 263.675781 129.859375 L 264.75 104.558594 "/>
<path style="fill:none;stroke-width:1.2;stroke-linecap:butt;stroke-linejoin:miter;stroke:rgb(0%,0%,0%);stroke-opacity:1;stroke-miterlimit:10;" d="M 264.75 104.558594 L 243.375 90.976562 "/>
<path style="fill:none;stroke-width:1.2;stroke-linecap:butt;stroke-linejoin:miter;stroke:rgb(0%,0%,0%);stroke-opacity:1;stroke-miterlimit:10;" d="M 243.375 90.976562 L 220.925781 102.699219 "/>
<path style="fill:none;stroke-width:1.2;stroke-linecap:butt;stroke-linejoin:miter;stroke:rgb(0%,0%,0%);stroke-opacity:1;stroke-miterlimit:10;" d="M 240.152344 166.878906 L 217.707031 178.601562 "/>
<path style="fill:none;stroke-width:1.2;stroke-linecap:butt;stroke-linejoin:miter;stroke:rgb(0%,0%,0%);stroke-opacity:1;stroke-miterlimit:10;" d="M 217.707031 178.601562 L 196.332031 165.019531 "/>
<path style="fill:none;stroke-width:1.2;stroke-linecap:butt;stroke-linejoin:miter;stroke:rgb(0%,0%,0%);stroke-opacity:1;stroke-miterlimit:10;" d="M 152.480469 135.449219 L 146.167969 159.972656 "/>
<path style="fill:none;stroke-width:1.2;stroke-linecap:butt;stroke-linejoin:miter;stroke:rgb(0%,0%,0%);stroke-opacity:1;stroke-miterlimit:10;" d="M 146.167969 159.972656 L 121.773438 166.769531 "/>
<path style="fill:none;stroke-width:1.2;stroke-linecap:butt;stroke-linejoin:miter;stroke:rgb(0%,0%,0%);stroke-opacity:1;stroke-miterlimit:10;" d="M 145.328125 166.390625 L 125.8125 171.832031 "/>
<path style="fill:none;stroke-width:1.2;stroke-linecap:butt;stroke-linejoin:miter;stroke:rgb(0%,0%,0%);stroke-opacity:1;stroke-miterlimit:10;" d="M 164.253906 177.699219 L 146.167969 159.972656 "/>
<path style="fill:none;stroke-width:1.2;stroke-linecap:butt;stroke-linejoin:miter;stroke:rgb(0%,0%,0%);stroke-opacity:1;stroke-miterlimit:10;" d="M 121.773438 166.769531 L 115.464844 191.292969 "/>
<path style="fill:none;stroke-width:1.2;stroke-linecap:butt;stroke-linejoin:miter;stroke:rgb(0%,0%,0%);stroke-opacity:1;stroke-miterlimit:10;" d="M 115.464844 191.292969 L 124.503906 200.160156 "/>
<path style="fill:none;stroke-width:1.2;stroke-linecap:butt;stroke-linejoin:miter;stroke:rgb(0%,0%,100%);stroke-opacity:1;stroke-miterlimit:10;" d="M 124.503906 200.160156 L 133.546875 209.023438 "/>
<path style="fill:none;stroke-width:1.2;stroke-linecap:butt;stroke-linejoin:miter;stroke:rgb(0%,0%,0%);stroke-opacity:1;stroke-miterlimit:10;" d="M 121.441406 188.8125 L 128.675781 195.902344 "/>
<path style="fill:none;stroke-width:1.2;stroke-linecap:butt;stroke-linejoin:miter;stroke:rgb(0%,0%,100%);stroke-opacity:1;stroke-miterlimit:10;" d="M 128.675781 195.902344 L 135.910156 202.996094 "/>
<path style="fill:none;stroke-width:1.2;stroke-linecap:butt;stroke-linejoin:miter;stroke:rgb(0%,0%,100%);stroke-opacity:1;stroke-miterlimit:10;" d="M 133.546875 209.023438 L 145.746094 205.625 "/>
<path style="fill:none;stroke-width:1.2;stroke-linecap:butt;stroke-linejoin:miter;stroke:rgb(0%,0%,0%);stroke-opacity:1;stroke-miterlimit:10;" d="M 145.746094 205.625 L 157.941406 202.226562 "/>
<path style=" stroke:none;fill-rule:nonzero;fill:rgb(100%,100%,100%);fill-opacity:1;" d="M 130.546875 203.523438 L 137.546875 203.523438 L 137.546875 214.523438 L 130.546875 214.523438 Z M 130.546875 203.523438 "/>
<g style="fill:rgb(0%,0%,100%);fill-opacity:1;">
  <use xlink:href="#glyph0-3" x="130.546875" y="212.186523"/>
</g>
<path style="fill:none;stroke-width:1.2;stroke-linecap:butt;stroke-linejoin:miter;stroke:rgb(0%,0%,0%);stroke-opacity:1;stroke-miterlimit:10;" d="M 157.941406 202.226562 L 164.253906 177.699219 "/>
<path style="fill:none;stroke-width:1.2;stroke-linecap:butt;stroke-linejoin:miter;stroke:rgb(0%,0%,0%);stroke-opacity:1;stroke-miterlimit:10;" d="M 152.800781 198.289062 L 157.851562 178.667969 "/>
</g>
</svg>

<svg xmlns="http://www.w3.org/2000/svg" xmlns:xlink="http://www.w3.org/1999/xlink" width="300pt" height="300pt" viewBox="0 0 300 300"><defs><symbol overflow="visible"><path d="M.453 1.594v-7.938h4.5v7.938zm.5-.5h3.5v-6.938h-3.5zm0 0"/></symbol><symbol overflow="visible" id="a"><path d="M5.797-6.063v.938c-.305-.27-.625-.473-.97-.61-.335-.144-.686-.218-1.06-.218-.75 0-1.33.23-1.736.687-.397.46-.592 1.12-.592 1.985 0 .866.195 1.526.593 1.983.408.46.986.688 1.736.688.375 0 .726-.066 1.062-.203.344-.132.664-.343.97-.625V-.5c-.314.21-.642.367-.986.47-.343.1-.714.155-1.11.155-.99 0-1.772-.3-2.343-.906C.784-1.396.5-2.228.5-3.28c0-1.052.285-1.88.86-2.486.57-.613 1.35-.92 2.343-.92.395-.002.766.053 1.11.155.35.104.68.26.984.468zm0 0"/></symbol><symbol overflow="visible" id="b"><path d="M.844-6.844h.812V0H.844zm0 0"/></symbol><symbol overflow="visible" id="c"><path d="M.89-6.563H2.08l2.906 5.485v-5.484h.86V0H4.656L1.75-5.484V0H.89zm0 0"/></symbol><symbol overflow="visible" id="d"><path d="M.89-6.563h.876v2.688H5v-2.688h.89V0H5v-3.125H1.766V0H.89zm0 0"/></symbol></defs><g><path fill="#fff" d="M0 0h300v300H0z"/><path d="M35.25 122.234l12.637-.79" stroke-width="1.2" stroke="#0c0" stroke-miterlimit="10" fill="none"/><path d="M47.887 121.445l12.636-.79" stroke-width="1.2" stroke="#000" stroke-miterlimit="10" fill="none"/><path d="M25.25 116.734h10v11h-10zm0 0" fill="#fff"/><g fill="#0c0"><use xlink:href="#a" x="25.25" y="125.397"/><use xlink:href="#b" x="31.764" y="125.397"/></g><path d="M60.523 120.656L71.797 97.98M66.988 121.043l9.016-18.145M74.527 141.758l-14.004-21.102M71.797 97.98l25.273-1.578M97.07 96.402l14.004 21.102M93.508 101.81l11.203 16.877M111.074 117.504L99.8 140.18M111.074 117.504l25.274-1.578M99.8 140.18l-25.273 1.578M96.902 134.39l-20.218 1.262M136.348 115.926l6.793-10.688" stroke-width="1.2" stroke="#000" stroke-miterlimit="10" fill="none"/><path d="M143.14 105.238l6.79-10.683" stroke-width="1.2" stroke="#00f" stroke-miterlimit="10" fill="none"/><path d="M142.734 116.984l5.434-8.55" stroke-width="1.2" stroke="#000" stroke-miterlimit="10" fill="none"/><path d="M148.168 108.434l5.434-8.547" stroke-width="1.2" stroke="#00f" stroke-miterlimit="10" fill="none"/><path d="M152.48 135.45l-16.132-19.524" stroke-width="1.2" stroke="#000" stroke-miterlimit="10" fill="none"/><path d="M149.93 94.555l24.523 6.308" stroke-width="1.2" stroke="#00f" stroke-miterlimit="10" fill="none"/><path d="M146.93 89.055h7v11h-7zm0 0" fill="#fff"/><use xlink:href="#c" x="146.93" y="97.718" fill="#00f"/><path d="M174.453 100.863l.79 12.637" stroke-width="1.2" stroke="#00f" stroke-miterlimit="10" fill="none"/><path d="M175.242 113.5l.79 12.637" stroke-width="1.2" stroke="#000" stroke-miterlimit="10" fill="none"/><path d="M167.453 95.363h14v11h-14zm0 0" fill="#fff"/><g fill="#00f"><use xlink:href="#c" x="167.453" y="104.026"/><use xlink:href="#d" x="174.431" y="104.026"/></g><path d="M176.03 126.137l10.69 6.793" stroke-width="1.2" stroke="#000" stroke-miterlimit="10" fill="none"/><path d="M186.72 132.93l10.686 6.79" stroke-width="1.2" stroke="#00f" stroke-miterlimit="10" fill="none"/><path d="M176.03 126.137l-23.55 9.312M171.484 121.527l-18.84 7.45" stroke-width="1.2" stroke="#000" stroke-miterlimit="10" fill="none"/><path d="M197.406 139.72l11.223-5.86" stroke-width="1.2" stroke="#00f" stroke-miterlimit="10" fill="none"/><path d="M208.63 133.86L219.85 128M196.332 165.02l.535-12.65" stroke-width="1.2" stroke="#000" stroke-miterlimit="10" fill="none"/><path d="M196.867 152.37l.54-12.65" stroke-width="1.2" stroke="#00f" stroke-miterlimit="10" fill="none"/><path d="M194.406 134.22h7v11h-7zm0 0" fill="#fff"/><use xlink:href="#c" x="194.406" y="142.882" fill="#00f"/><path d="M219.852 128l21.375 13.578M220.926 102.7l-1.074 25.3M241.227 141.578l22.45-11.72M241.227 141.578l-1.075 25.3M263.676 129.86l1.074-25.3M264.75 104.56l-21.375-13.583M243.375 90.977l-22.45 11.722M240.152 166.88L217.707 178.6M217.707 178.602l-21.375-13.582M152.48 135.45l-6.312 24.523M146.168 159.973l-24.395 6.797M145.328 166.39l-19.516 5.442M164.254 177.7l-18.086-17.727M121.773 166.77l-6.308 24.523M115.465 191.293l9.04 8.867" stroke-width="1.2" stroke="#000" stroke-miterlimit="10" fill="none"/><path d="M124.504 200.16l9.043 8.863" stroke-width="1.2" stroke="#00f" stroke-miterlimit="10" fill="none"/><path d="M121.44 188.813l7.236 7.09" stroke-width="1.2" stroke="#000" stroke-miterlimit="10" fill="none"/><path d="M128.676 195.902l7.234 7.094M133.547 209.023l12.2-3.398" stroke-width="1.2" stroke="#00f" stroke-miterlimit="10" fill="none"/><path d="M145.746 205.625l12.195-3.398" stroke-width="1.2" stroke="#000" stroke-miterlimit="10" fill="none"/><path d="M130.547 203.523h7v11h-7zm0 0" fill="#fff"/><use xlink:href="#c" x="130.547" y="212.187" fill="#00f"/><path d="M157.94 202.227l6.314-24.528M152.8 198.29l5.052-19.622" stroke-width="1.2" stroke="#000" stroke-miterlimit="10" fill="none"/></g></svg>
